X:160
T:Nancy Orr Hawkins
R:planxty
C:2014 L.E. McCullough 
M:4/4
L:1/8
K:Eminor
z4 z2GB||: d3B cBAG | (3FGA EF D2 GF | ~E3G FAdc| 
BABG A2 GB | d3B cBAG | (3FGA (3GFE D2 GF | ~E3G FABd |
|1 edfd e2GB :||2 edfd e2gf ||: ~e3f e~B3 | (3dcB AB d2 BA | 
~G3A FAdf |gfed e2 ed | ~B3d ~A3d | (3AGF (3GFE  D2 FD | 
~E3G BABd |1 ga (3gfd e2gf :||2 ga (3gfd e2GB||
%%
%% RECUEIL / de Chants et Danses Populaires / EDITE PAR / "LA BOURRE"
%%  Socit Artistique / des Originaires du Massif Central
%%  actuellement migrs dans l'agglomration parisienne
%%  SIGE SOCIAL: / 13, Bd BEAUMARCHAIS / PARIS - (IVe) / 4e EDITION
%%  Musique revue et mise au point / par J CANTELOUBE
%%
%% Published 1929
%%
%% Page photographs published online by Gary Chapin at http://accordeonaire.blogspot.co.uk 
%% Abc notation tune transcriptions by and (C) Steve Mansfield, http://www.lesession.co.uk,
%%  under the Creative Commons license as detailed at http://creativecommons.org/licenses/by/3.0/
%%
%% Specifically :-
%%  Please preserve the Z: fields in any and all downstream usage of these abc transcriptions.
%%  If redistributing the entire file please preserve this entire header intact and unaltered.
%%  You are free to amend, alter and redistribute the abc notation of individual tunes, 
%%   but any and all changes should be documented through appropriate additional N: and Z: fields 
%%   (whilst preserving the existing N: and Z: fields) before any redistribution.
%%
%%
%% Editorial notes : 
%% -----------------
%% I welcome notification of any transcription errors (e.g. actual erroneous divergences from the 
%%  sheet music on the scanned page) via the contact details on http://www.lesession.co.uk 
%%
%% This is a reproduction of the music as published in the 1929 book. Note spacing is as in the source.
%%
%% Canteloube's dynamic markings, performance notes etc. have been reproduced as follows: 
%%  Dance/tune forms (Bourre etc.) have been transcribed as R: fields, 
%%   initial textual expression and tempo indicators (Assez anim etc.) as N: fields.
%% Crescendos, diminuendos, fermata etc. have been reproduced.
%% In addition Canteloube added various other text notations which have been transcribed as text comments 
%%  at the appropriate point. Nit-pickers may therefore possibly find what could be regarded as 
%%  minor inconsistencies in my choices between N: fields, !! fields, and text; enjoy.
%%   
%% Tunes 55 to 59 form a linked suite entitled 'Rveillez' - I have represented this 
%%  through separate tunes with secondary editorial title fields. Another transcriber might have decided to 
%%  represent this as a single piece with multiple P: sections. 
%%
%% This is a LeSession production from the Massif Central corner of the High Peak of Derbyshire, England.
%%  April-June 2012. Made in EasyAbc and Textpad, and verified against abcm2ps 6.3.3. using an English concertina, 
%%  other abc renderers and instruments may vary.
%%
%% Abc tutorial available at http://www.lesession.co.uk/abc
%%
%% La Bourree.abc - file v1.0
%% 
<end>
<start>
